src/svg/arrow-up-outline.svg

<svg version="1.2" baseProfile="tiny" xmlns="http://www.w3.org/2000/svg" width="24" height="24" viewBox="0 0 24 24"><path d="M12 21c-1.654 0-3-1.346-3-3v-4.764c-1.143 1.024-3.025.979-4.121-.115-1.17-1.169-1.17-3.073 0-4.242l7.121-7.121 7.121 7.121c1.17 1.169 1.17 3.073 0 4.242-1.094 1.095-2.979 1.14-4.121.115v4.764c0 1.654-1.346 3-3 3zm-1-12.586v9.586c0 .551.448 1 1 1s1-.449 1-1v-9.586l3.293 3.293c.379.378 1.035.378 1.414 0 .391-.391.391-1.023 0-1.414l-5.707-5.707-5.707 5.707c-.391.391-.391 1.023 0 1.414.379.378 1.035.378 1.414 0l3.293-3.293z"/></svg>

<?xml version="1.0" encoding="iso-8859-1"?>
<!-- Generator: Adobe Illustrator 16.2.1, SVG Export Plug-In . SVG Version: 6.00 Build 0)  -->
<svg version="1.2" baseProfile="tiny" id="Layer_1" xmlns="http://www.w3.org/2000/svg" xmlns:xlink="http://www.w3.org/1999/xlink"
	 x="0px" y="0px" width="24px" height="24px" viewBox="0 0 24 24" xml:space="preserve">
<g>
	<path d="M12,21c-1.654,0-3-1.346-3-3v-4.764c-1.143,1.024-3.025,0.979-4.121-0.115c-1.17-1.169-1.17-3.073,0-4.242L12,1.758
		l7.121,7.121c1.17,1.169,1.17,3.073,0,4.242c-1.094,1.095-2.979,1.14-4.121,0.115V18C15,19.654,13.654,21,12,21z M11,8.414V18
		c0,0.551,0.448,1,1,1s1-0.449,1-1V8.414l3.293,3.293c0.379,0.378,1.035,0.378,1.414,0c0.391-0.391,0.391-1.023,0-1.414L12,4.586
		l-5.707,5.707c-0.391,0.391-0.391,1.023,0,1.414c0.379,0.378,1.035,0.378,1.414,0L11,8.414z"/>
</g>
</svg>
